modules/feathericon/icons/eraser.svg

<?xml version="1.0" encoding="UTF-8"?>
<svg width="10px" height="14px" viewBox="0 0 10 14" version="1.1" xmlns="http://www.w3.org/2000/svg" xmlns:xlink="http://www.w3.org/1999/xlink">
    <!-- Generator: sketchtool 48.1 (47250) - http://www.bohemiancoding.com/sketch -->
    <title>eraser</title>
    <desc>Created with sketchtool.</desc>
    <defs></defs>
    <g id="production" stroke="none" stroke-width="1" fill="none" fill-rule="evenodd">
        <g id="eraser" fill="#000000">
            <path d="M9,10 L9,13.0001925 C9,13.5523709 8.54696369,14 8.00296986,14 L1.99703014,14 C1.4463856,14 1,13.5562834 1,13.0001925 L1,10 L0.995397568,10 C0.445654671,10 0,9.5443356 0,9.00460243 L0,0.995397568 C0,0.445654671 0.455664396,0 0.995397568,0 L9.00460243,0 C9.55434533,0 10,0.455664396 10,0.995397568 L10,9.00460243 C10,9.55434533 9.5443356,10 9.00460243,10 L9,10 Z M2,10 L2,13 L8,13 L8,10 L2,10 Z" id="Shape"></path>
        </g>
    </g>
</svg>

<svg width="10" height="14" xmlns="http://www.w3.org/2000/svg"><path d="M9 10v3c0 .552-.453 1-.997 1H1.997A.996.996 0 0 1 1 13v-3H.995C.445 10 0 9.544 0 9.005V.995C0 .445.456 0 .995 0h8.01c.55 0 .995.456.995.995v8.01c0 .55-.456.995-.995.995H9zm-7 0v3h6v-3H2z" fill="#000" fill-rule="evenodd"/></svg>
